public/favicon.svg

<svg width="500" height="500" fill="none" xmlns="http://www.w3.org/2000/svg"><path d="M457.972 98.546H53.492c-15.988 0-28.848 13.146-28.484 29.134 1.544 68.972 26.2 244.577 225.916 353.104a4.59 4.59 0 0 0 4.373 0c.078-.039.169-.091.247-.13 23.345-10.628 65.105-43.291 65.105-43.291C149.6 362.991 121.868 245.342 119.558 185.609c-.104-2.569 1.972-4.711 4.555-4.711h311.564a16.982 16.982 0 0 0 15.443-9.888l22.294-48.313c5.204-11.277-3.036-24.15-15.455-24.15h.013Z" fill="url(#a)"/><path d="M250.586 399.768s111.81-46.159 130.821-178.563h74.877c6.177 0 10.589 5.943 8.825 11.861-9.694 32.663-44.81 126.642-144.46 204.309 0 0-43.33-18.18-70.063-37.607Z" fill="url(#b)"/><path d="M381.409 221.205H221.325c-7.008 0-11.848 7.007-9.383 13.561l16.299 43.252a10.014 10.014 0 0 0 9.383 6.488h125.708s16.221-37.347 18.077-63.301Z" fill="url(#c)"/><path opacity=".35" d="M139.114 170.983s-6.397-8.409-6.397-11.394c0-34.181 15.468-53.737 35.648-53.737 20.179 0 35.725 19.556 35.725 53.737 0 2.985-6.397 11.394-6.397 11.394" fill="url(#d)"/><path opacity=".35" d="M307.816 170.983s-6.398-8.409-6.398-11.394c0-34.181 15.469-53.737 35.648-53.737 20.179 0 35.725 19.556 35.725 53.737 0 2.985-6.397 11.394-6.397 11.394" fill="url(#e)"/><path d="m363.136 137.036-6.904-38.49h-.052c-.142-74.06-73.579-79.756-73.579-79.756l-11.887 1.907-10.083 4.23c62.86 21.685 59.992 69.35 59.603 73.606h-.065l-5.813 38.49c-.818.986-5.178 3.374-5.178 4.568 0 13.716 13.236 21.555 29.561 21.555s29.562-7.839 29.562-21.555c0-1.194-4.347-3.582-5.178-4.568l.013.013Z" fill="url(#f)"/><path d="M282.627 18.802C163.135 8.628 149.808 98.56 149.808 98.56l-5.814 38.49c-.817.986-5.178 3.374-5.178 4.568 0 13.716 13.237 21.554 29.562 21.554 16.325 0 29.562-7.838 29.562-21.554 0-1.194-4.348-3.582-5.178-4.568l-6.8-38.49c7.994-63.328 96.665-79.757 96.665-79.757Z" fill="url(#g)"/><defs><linearGradient id="a" x1="209.748" y1="39.839" x2="356.816" y2="443.903" gradientUnits="userSpaceOnUse"><stop stop-color="#7FCFF4"/><stop offset=".25" stop-color="#42A4DC"/><stop offset=".8" stop-color="#24AE5F"/></linearGradient><linearGradient id="b" x1="388.324" y1="202.673" x2="325.126" y2="438.569" gradientUnits="userSpaceOnUse"><stop stop-color="#1DAC93"/><stop offset=".5" stop-color="#24AE5F"/><stop offset="1" stop-color="#175031"/></linearGradient><linearGradient id="c" x1="381.409" y1="252.855" x2="211.293" y2="252.855" gradientUnits="userSpaceOnUse"><stop stop-color="#175031"/><stop offset=".5" stop-color="#1DAC93"/><stop offset="1" stop-color="#42A4DC"/></linearGradient><linearGradient id="d" x1="168.416" y1="105.852" x2="168.416" y2="170.983" gradientUnits="userSpaceOnUse"><stop offset=".28" stop-color="#00578B"/><stop offset="1" stop-color="#42A4DC"/></linearGradient><linearGradient id="e" x1="337.118" y1="105.852" x2="337.118" y2="170.983" gradientUnits="userSpaceOnUse"><stop offset=".28" stop-color="#00578B"/><stop offset="1" stop-color="#42A4DC"/></linearGradient><linearGradient id="f" x1="277.527" y1="15.195" x2="359.723" y2="157.565" gradientUnits="userSpaceOnUse"><stop offset=".02" stop-color="#00578B"/><stop offset=".12" stop-color="#0068A8"/><stop offset=".25" stop-color="#42A4DC"/><stop offset=".65" stop-color="#00578B"/><stop offset="1" stop-color="#092D4B"/></linearGradient><linearGradient id="g" x1="275.231" y1="11.393" x2="138.025" y2="148.611" gradientUnits="userSpaceOnUse"><stop stop-color="#7FCFF4"/><stop offset=".3" stop-color="#0068A8"/><stop offset="1" stop-color="#092D4B"/></linearGradient></defs></svg>

<svg width="500" height="500" viewBox="0 0 500 500" fill="none" xmlns="http://www.w3.org/2000/svg">
<path d="M457.972 98.5464H53.492C37.5044 98.5464 24.6442 111.692 25.0075 127.68C26.5518 196.652 51.2081 372.257 250.924 480.784C252.287 481.523 253.935 481.523 255.297 480.784C255.375 480.745 255.466 480.693 255.544 480.654C278.889 470.026 320.649 437.363 320.649 437.363C149.6 362.991 121.868 245.342 119.558 185.609C119.454 183.04 121.53 180.898 124.113 180.898C159.384 180.898 383.432 180.898 435.677 180.898C442.322 180.898 448.343 177.044 451.12 171.01L473.414 122.697C478.618 111.42 470.378 98.5464 457.959 98.5464H457.972Z" fill="url(#paint0_linear_720_149)"/>
<path d="M250.586 399.768C250.586 399.768 362.396 353.609 381.407 221.205H456.284C462.461 221.205 466.873 227.148 465.109 233.066C455.415 265.729 420.299 359.708 320.649 437.375C320.649 437.375 277.319 419.195 250.586 399.768Z" fill="url(#paint1_linear_720_149)"/>
<path d="M381.409 221.205H221.325C214.317 221.205 209.477 228.212 211.942 234.766L228.241 278.018C229.708 281.924 233.445 284.506 237.624 284.506H363.332C363.332 284.506 379.553 247.159 381.409 221.205Z" fill="url(#paint2_linear_720_149)"/>
<path opacity="0.35" d="M139.114 170.983C139.114 170.983 132.717 162.574 132.717 159.589C132.717 125.408 148.185 105.852 168.365 105.852C188.544 105.852 204.09 125.408 204.09 159.589C204.09 162.574 197.693 170.983 197.693 170.983" fill="url(#paint3_linear_720_149)"/>
<path opacity="0.35" d="M307.816 170.983C307.816 170.983 301.418 162.574 301.418 159.589C301.418 125.408 316.887 105.852 337.066 105.852C357.245 105.852 372.791 125.408 372.791 159.589C372.791 162.574 366.394 170.983 366.394 170.983" fill="url(#paint4_linear_720_149)"/>
<path d="M363.136 137.036L356.232 98.5461H356.18C356.038 24.4864 282.601 18.7896 282.601 18.7896L270.714 20.6972L260.631 24.9277C323.491 46.6122 320.623 94.2767 320.234 98.5332H320.169L314.356 137.023C313.538 138.009 309.178 140.397 309.178 141.591C309.178 155.307 322.414 163.146 338.739 163.146C355.064 163.146 368.301 155.307 368.301 141.591C368.301 140.397 363.954 138.009 363.123 137.023L363.136 137.036Z" fill="url(#paint5_linear_720_149)"/>
<path d="M282.627 18.8024C163.135 8.62849 149.808 98.559 149.808 98.559L143.994 137.049C143.177 138.035 138.816 140.423 138.816 141.617C138.816 155.333 152.053 163.171 168.378 163.171C184.703 163.171 197.94 155.333 197.94 141.617C197.94 140.423 193.592 138.035 192.762 137.049L185.962 98.559C193.956 35.2313 282.627 18.8024 282.627 18.8024Z" fill="url(#paint6_linear_720_149)"/>
<defs>
<linearGradient id="paint0_linear_720_149" x1="209.748" y1="39.8385" x2="356.816" y2="443.903" gradientUnits="userSpaceOnUse">
<stop stop-color="#7FCFF4"/>
<stop offset="0.25" stop-color="#42A4DC"/>
<stop offset="0.8" stop-color="#24AE5F"/>
</linearGradient>
<linearGradient id="paint1_linear_720_149" x1="388.324" y1="202.673" x2="325.126" y2="438.569" gradientUnits="userSpaceOnUse">
<stop stop-color="#1DAC93"/>
<stop offset="0.5" stop-color="#24AE5F"/>
<stop offset="1" stop-color="#175031"/>
</linearGradient>
<linearGradient id="paint2_linear_720_149" x1="381.409" y1="252.855" x2="211.293" y2="252.855" gradientUnits="userSpaceOnUse">
<stop stop-color="#175031"/>
<stop offset="0.5" stop-color="#1DAC93"/>
<stop offset="1" stop-color="#42A4DC"/>
</linearGradient>
<linearGradient id="paint3_linear_720_149" x1="168.416" y1="105.852" x2="168.416" y2="170.983" gradientUnits="userSpaceOnUse">
<stop offset="0.28" stop-color="#00578B"/>
<stop offset="1" stop-color="#42A4DC"/>
</linearGradient>
<linearGradient id="paint4_linear_720_149" x1="337.118" y1="105.852" x2="337.118" y2="170.983" gradientUnits="userSpaceOnUse">
<stop offset="0.28" stop-color="#00578B"/>
<stop offset="1" stop-color="#42A4DC"/>
</linearGradient>
<linearGradient id="paint5_linear_720_149" x1="277.527" y1="15.1949" x2="359.723" y2="157.565" gradientUnits="userSpaceOnUse">
<stop offset="0.02" stop-color="#00578B"/>
<stop offset="0.12" stop-color="#0068A8"/>
<stop offset="0.25" stop-color="#42A4DC"/>
<stop offset="0.65" stop-color="#00578B"/>
<stop offset="1" stop-color="#092D4B"/>
</linearGradient>
<linearGradient id="paint6_linear_720_149" x1="275.231" y1="11.3926" x2="138.025" y2="148.611" gradientUnits="userSpaceOnUse">
<stop stop-color="#7FCFF4"/>
<stop offset="0.3" stop-color="#0068A8"/>
<stop offset="1" stop-color="#092D4B"/>
</linearGradient>
</defs>
</svg>
